X: 27278
T: Miss Thornton's
R: reel
M: 4/4
K: Gmajor
bg~g2 bgag|egdg egdg|bg~g2 bgag|egfa ~g3a|
bg~g2 bgag|egdg egde|~g3a gfed|1 egfa ~g3a:|2 egfa gedB||

